X: 2119
T: Atlantic
R: waltz
M: 3/4
K: Gmajor
D G>A|(A B2) d B>G|A2 G2 G>A|(A B2) A G>F|E3 D G>A|(A B2) d B>G|
A2 G2 F2|E3 F G>B|A2 d2- d>c|B3 A B>d|B2 A2 G>A|
(A B2) A G>F|D4 B,>G,|C2 E2 B2|A2 G2 (3FGA|G3 F G>A|G3:|
|:A B>d|e3 d (3efg|f2 e2 d2|B3 A G>F|D4 B,2|C2 D2 E2|
F2 G2 AG|BA G2 B2|A2 g2 f2|e3 d (3efg|f2 e2 f2|g2 d2 B2|
c4 B2|A>G F>E D>B,|C2 E2 B2|A2 G2 (3FGA|G3 F G>A|G3:|

